X:87
T:score175
L:1/8
Q:1/4=96
M:6/8
I:linebreak $
K:Bb
!f! BFB dfd | c6 |!f! BFB dfd | c6 |$ BFd c3 | BFd c3 | B2 z z2 B | B2 z B2 z |$ %8
 B2 z !fermata!z2 z |] %9
